images/skills/3-skills-backend-sm.svg

<?xml version="1.0" encoding="UTF-8" standalone="no"?>
<svg width="56px" height="56px" viewBox="0 0 56 56" version="1.1" xmlns="http://www.w3.org/2000/svg" xmlns:xlink="http://www.w3.org/1999/xlink" xmlns:sketch="http://www.bohemiancoding.com/sketch/ns">
    <!-- Generator: Sketch 3.2.2 (9983) - http://www.bohemiancoding.com/sketch -->
    <title>backend</title>
    <desc>Created with Sketch.</desc>
    <defs></defs>
    <g id="Small" stroke="none" stroke-width="1" fill="none" fill-rule="evenodd" sketch:type="MSPage">
        <g id="backend" sketch:type="MSLayerGroup" fill="#FFFFFF">
            <path d="M28,22.5349169 C25.16864,22.5349169 22.8795323,24.8240246 22.8795323,27.6553846 C22.8795323,30.4867446 25.16864,32.7758523 28,32.7758523 C30.83136,32.7758523 33.1204677,30.4867446 33.1204677,27.6553846 C33.1204677,24.8240246 30.83136,22.5349169 28,22.5349169" id="Fill-1" sketch:type="MSShapeGroup"></path>
            <path d="M34.1444923,36.5107938 L36.6143508,39.0407877 L39.3854031,36.2697354 L36.8554092,33.7998769 C36.6746585,33.5589908 36.6143508,33.2577969 36.7951015,33.0167385 C37.3373538,32.0530215 37.8191262,30.1388554 37.9998769,29.4160246 C38.0601846,29.1749662 38.3010708,28.9476923 38.6022646,28.9476923 L42.2153846,28.9476923 L42.2153846,26.3630769 L38.6022646,26.3630769 C38.3010708,26.3630769 38.0601846,26.1358031 37.9998769,25.8346092 C37.8191262,25.1719138 37.3373538,23.2510277 36.7951015,22.2871385 C36.6143508,22.0462523 36.6746585,21.7485046 36.8554092,21.5074462 L39.3854031,19.0393108 L36.6143508,16.26912 L34.1444923,18.7996308 C33.9036062,18.9803815 33.6024123,19.0408615 33.3613538,18.8601108 C32.51808,18.3781662 30.9051077,17.9565292 29.76064,17.6553354 C29.5195815,17.5952 29.2923077,17.3543138 29.2923077,17.05312 L29.2923077,13.44 L26.7076923,13.44 L26.7076923,17.05312 C26.7076923,17.3543138 26.4804185,17.5952 26.1792246,17.6555077 C25.5165292,17.8362585 23.5956431,18.3182031 22.6317538,18.8602831 C22.3908677,19.0410338 22.09312,18.9807262 21.8520615,18.7999754 L19.3839262,16.2699815 L16.6137354,19.0410338 L19.1442462,21.5108923 C19.3249969,21.7517785 19.3854769,22.0529723 19.2047262,22.2940308 C18.6624738,23.25792 18.1807015,25.1719138 17.9999508,25.8947446 C17.9398154,26.1358031 17.6989292,26.3630769 17.3977354,26.3630769 L13.7846154,26.3630769 L13.7846154,28.9476923 L17.3977354,28.9476923 C17.6989292,28.9476923 17.9398154,29.1749662 18.0001231,29.4160246 C18.1808738,30.1388554 18.6628185,32.0597415 19.2048985,33.0236308 C19.3856492,33.2645169 19.3253415,33.5622646 19.1445908,33.8033231 L16.6145969,36.2714585 L19.3856492,39.0416492 L21.8555077,36.5111385 C22.0963938,36.3303877 22.3975877,36.2699077 22.6386462,36.4506585 C23.6023631,36.9929108 25.5165292,37.4746831 26.23936,37.6554338 C26.4804185,37.7155692 26.7076923,37.9564554 26.7076923,38.2576492 L26.7076923,41.8707692 L29.2923077,41.8707692 L29.2923077,38.2576492 C29.2923077,37.9564554 29.5195815,37.7155692 29.76064,37.6552615 C30.4834708,37.4745108 32.4043569,36.9927385 33.3682462,36.4504862 C33.6091323,36.2697354 33.9036062,36.3300431 34.1444923,36.5107938 L34.1444923,36.5107938 Z M28,34.1010708 C24.4458092,34.1010708 21.5543138,31.2095754 21.5543138,27.6553846 C21.5543138,24.1011938 24.4458092,21.2096985 28,21.2096985 C31.5541908,21.2096985 34.4456862,24.1011938 34.4456862,27.6553846 C34.4456862,31.2095754 31.5541908,34.1010708 28,34.1010708 L28,34.1010708 Z" id="Fill-2" sketch:type="MSShapeGroup"></path>
            <path d="M27.0523077,53.7355323 L5.60103385,41.3910646 C5.33395692,41.2371938 5.16923077,40.9525415 5.16923077,40.6442831 L5.16923077,15.3557169 C5.16923077,15.0474585 5.33395692,14.7628062 5.60103385,14.6089354 L27.0523077,2.26446769 L27.0523077,0 L0,0 L0,56 L27.0523077,56 L27.0523077,53.7355323" id="Fill-3" sketch:type="MSShapeGroup"></path>
            <path d="M28.7753846,0 L28.7753846,2.76278154 C28.7753846,3.07104 28.6106585,3.35569231 28.3435815,3.50956308 L6.89230769,15.8540308 L6.89230769,40.1459692 L28.3435815,52.4904369 C28.6106585,52.6443077 28.7753846,52.92896 28.7753846,53.2372185 L28.7753846,56 L56,56 L56,0 L28.7753846,0 L28.7753846,0 Z M26.0723938,43.0769231 C25.7108923,43.0769231 25.3292308,42.7757292 25.3292308,42.4142277 L25.3292308,38.7395938 C24.4676923,38.4987077 23.2610215,38.1975138 22.4177477,37.7757046 L19.7871262,40.3661785 C19.54624,40.6070646 19.1345969,40.6070646 18.8937108,40.3661785 L15.2842092,36.75168 C15.1637662,36.6312369 15.1060431,36.4504862 15.1060431,36.2697354 C15.1060431,36.0889846 15.1675569,35.9685415 15.288,35.8480985 L17.8789908,33.2378092 C17.4573538,32.3943631 17.1566769,31.1876923 16.9157908,30.3261538 L13.2411569,30.3261538 C12.9027446,30.3261538 12.5784615,29.9817108 12.5784615,29.6513969 L12.5784615,25.6593723 C12.5784615,25.3290585 12.9027446,24.9846154 13.2411569,24.9846154 L16.9157908,24.9846154 C17.1566769,24.1230769 17.4578708,22.9164062 17.87968,22.0731323 L15.2892062,19.4425108 C15.04832,19.2016246 15.04832,18.7899815 15.2892062,18.5490954 L18.9037046,14.9395938 C19.1445908,14.6987077 19.5664,14.70112 19.8072862,14.9421785 L22.4177477,17.5336862 C23.2610215,17.1120492 24.4676923,16.8120615 25.3292308,16.5711754 L25.3292308,12.8965415 C25.3292308,12.53504 25.7108923,12.2338462 26.0723938,12.2338462 L29.9277785,12.2338462 C30.2891077,12.2338462 30.6707692,12.53504 30.6707692,12.8965415 L30.6707692,16.5711754 C31.5323077,16.8120615 32.7389785,17.1132554 33.5824246,17.5350646 L36.2128738,14.9445908 C36.45376,14.7037046 36.8654031,14.7037046 37.1062892,14.9445908 L40.7157908,18.5590892 C40.8362338,18.6795323 40.8939569,18.8602831 40.8939569,19.0410338 C40.8939569,19.2217846 40.8324431,19.3422277 40.712,19.4626708 L38.1210092,22.0731323 C38.5426462,22.9164062 38.8433231,24.1230769 39.0842092,24.9846154 L42.7588431,24.9846154 C43.1203446,24.9846154 43.4215385,25.3662769 43.4215385,25.7277785 L43.4215385,29.5831631 C43.4215385,29.9444923 43.1203446,30.3261538 42.7588431,30.3261538 L39.0842092,30.3261538 C38.8433231,31.1876923 38.5421292,32.3943631 38.12032,33.2378092 L40.7107938,35.8682585 C40.95168,36.1091446 40.95168,36.5207877 40.7107938,36.7616738 L37.0962954,40.3711754 C36.8554092,40.6120615 36.4336,40.6096492 36.1927138,40.3685908 L33.5824246,37.7770831 C32.7389785,38.19872 31.5323077,38.4987077 30.6707692,38.7395938 L30.6707692,42.4142277 C30.6707692,42.7757292 30.2891077,43.0769231 29.9277785,43.0769231 L26.0723938,43.0769231 L26.0723938,43.0769231 Z M50.6584615,40.5726031 C50.6584615,40.8805169 50.49408,41.1651692 50.22752,41.3188677 L33.2481477,51.1133538 L31.1988923,52.2928 C31.0724185,52.3586215 30.9369846,52.3917046 30.8027569,52.3917046 C30.5048369,52.3917046 30.2150154,52.2371446 30.0556308,51.9604185 C29.8178462,51.5482585 29.9593108,51.0215138 30.3712985,50.7837292 L32.4403692,49.5901538 L48.9353846,40.0978954 L48.9353846,15.82336 L30.5470523,5.21575385 C30.1355815,4.97779692 29.9942892,4.45139692 30.2319015,4.03940923 C30.4696862,3.62742154 30.9962585,3.48561231 31.4087631,3.72374154 L50.22752,14.5794708 C50.49408,14.7333415 50.6584615,15.0178215 50.6584615,15.3257354 L50.6584615,40.5726031 L50.6584615,40.5726031 Z" id="Fill-4" sketch:type="MSShapeGroup"></path>
        </g>
    </g>
</svg>

<svg width="56" height="56" viewBox="0 0 56 56" xmlns="http://www.w3.org/2000/svg"><title>backend</title><desc>Created with Sketch.</desc><g fill="#fff"><path d="M28 22.535c-2.83 0-5.12 2.29-5.12 5.12 0 2.832 2.29 5.12 5.12 5.12s5.12-2.288 5.12-5.12c0-2.83-2.29-5.12-5.12-5.12"/><path d="M34.144 36.51l2.47 2.53 2.77-2.77-2.53-2.47c-.18-.24-.24-.542-.06-.783.543-.964 1.025-2.878 1.206-3.6.06-.242.3-.47.602-.47h3.613v-2.584h-3.613c-.3 0-.542-.227-.602-.528-.18-.663-.663-2.584-1.205-3.548-.18-.24-.12-.538.06-.78l2.53-2.468-2.77-2.77-2.47 2.53c-.24.18-.543.24-.784.06-.842-.482-2.455-.903-3.6-1.205-.24-.06-.468-.3-.468-.602V13.44h-2.584v3.613c0 .3-.228.542-.53.603-.66.18-2.582.662-3.546 1.204-.24.18-.54.12-.78-.06l-2.468-2.53-2.77 2.77 2.53 2.47c.18.242.24.543.06.784-.542.964-1.023 2.878-1.204 3.6-.06.242-.3.47-.602.47h-3.613v2.584h3.613c.3 0 .542.227.602.468.18.723.663 2.644 1.205 3.608.18.24.12.538-.06.78l-2.53 2.467 2.77 2.772 2.47-2.53c.24-.182.543-.242.784-.06.962.54 2.877 1.023 3.6 1.203.24.06.468.3.468.603v3.613h2.584V38.26c0-.302.228-.542.47-.603.72-.18 2.642-.662 3.606-1.205.24-.18.536-.12.776.06zM28 34.1c-3.554 0-6.446-2.89-6.446-6.445 0-3.554 2.892-6.445 6.446-6.445s6.446 2.89 6.446 6.445S31.554 34.1 28 34.1z"/><path d="M27.052 53.736L5.602 41.39c-.268-.153-.433-.437-.433-.746V15.356c0-.31.164-.593.43-.747L27.053 2.263V0H0v56h27.052v-2.264"/><path d="M28.775 0v2.763c0 .308-.164.593-.43.747L6.89 15.854v24.292L28.344 52.49c.267.154.43.44.43.747V56H56V0H28.775zm-2.703 43.077c-.36 0-.743-.3-.743-.663V38.74c-.862-.24-2.07-.542-2.912-.964l-2.63 2.59c-.242.24-.653.24-.894 0l-3.61-3.614c-.12-.12-.178-.302-.178-.482s.062-.3.182-.422l2.59-2.61c-.42-.844-.72-2.05-.962-2.912H13.24c-.337 0-.662-.344-.662-.675v-3.99c0-.33.325-.675.663-.675h3.676c.24-.862.542-2.07.964-2.912l-2.59-2.63c-.242-.24-.242-.653 0-.894l3.614-3.61c.24-.24.662-.24.903.002l2.61 2.592c.844-.422 2.05-.722 2.912-.963v-3.673c0-.362.38-.663.742-.663h3.856c.36 0 .743.3.743.663v3.674c.862.242 2.07.543 2.912.965l2.63-2.59c.242-.24.653-.24.894 0l3.61 3.614c.12.12.178.3.178.48 0 .182-.062.302-.182.423l-2.59 2.61c.42.843.72 2.05.962 2.912h3.675c.36 0 .662.38.662.743v3.855c0 .36-.302.743-.663.743h-3.676c-.24.862-.542 2.068-.964 2.912l2.59 2.63c.242.24.242.653 0 .894l-3.614 3.61c-.24.24-.662.238-.903-.003l-2.61-2.593c-.844.422-2.05.722-2.912.963v3.674c0 .362-.38.663-.742.663h-3.856zm24.586-2.504c0 .308-.164.592-.43.746l-16.98 9.793-2.05 1.18c-.126.066-.26.1-.395.1-.298 0-.588-.156-.747-.433-.238-.412-.097-.938.315-1.176l2.07-1.194 16.495-9.492V15.823L30.547 5.216c-.41-.238-.553-.765-.315-1.177.238-.413.764-.554 1.177-.316L50.227 14.58c.266.153.43.438.43.746v25.247z"/></g></svg>
